img/logo.svg

<svg width="91" height="19" viewBox="0 0 91 19" fill="none" xmlns="http://www.w3.org/2000/svg">
<path d="M37.3505 15.9064V3.97656H40.7055V9.46024L45.2142 3.97656H49.0841L44.2159 9.65773L49.3383 15.9064H45.2393L40.7055 10.1027V15.9064H37.3505Z" fill="#0D111F"/>
<path d="M56.2945 16.1538C55.2026 16.1538 54.2332 15.9314 53.3864 15.4864C52.5592 15.0588 51.8721 14.4173 51.402 13.6341C50.9243 12.8441 50.6852 11.9303 50.6847 10.8926V3.97656H54.0664V10.8185C54.0664 11.56 54.2629 12.1366 54.6558 12.5483C55.0488 12.9599 55.595 13.1655 56.2945 13.1649C56.9961 13.1649 57.5423 12.9633 57.9331 12.56C58.3239 12.1567 58.5206 11.5762 58.5233 10.8185V3.97656H61.88V10.8926C61.88 11.9475 61.6452 12.8699 61.1756 13.6598C60.7137 14.4415 60.0297 15.0796 59.2042 15.4989C58.3568 15.935 57.3869 16.1533 56.2945 16.1538Z" fill="#0D111F"/>
<path d="M69.271 16.1536C68.1618 16.1536 67.1714 15.8776 66.2997 15.3254C65.4239 14.7701 64.7132 14.0044 64.2376 13.1038C63.7335 12.1723 63.4814 11.1222 63.4814 9.95336C63.4814 8.78455 63.7335 7.73049 64.2376 6.79117C64.711 5.88535 65.4219 5.11464 66.2997 4.55555C67.1829 4.00145 68.2173 3.71366 69.271 3.7289C69.9923 3.7163 70.7083 3.8509 71.3719 4.12388C71.9672 4.37429 72.4998 4.74512 72.9336 5.21125V0H76.2652V15.9062H72.9336V14.6963C72.4941 15.1499 71.9625 15.5115 71.3719 15.7586C70.708 16.0309 69.9922 16.1655 69.271 16.1536ZM70.015 13.114C70.9363 13.114 71.6793 12.8135 72.2438 12.2124C72.8084 11.6113 73.0899 10.8331 73.0883 9.87765C73.0883 8.94093 72.8068 8.17153 72.2438 7.56943C71.6809 6.96733 70.9379 6.66732 70.015 6.6694C69.091 6.6694 68.3431 6.96993 67.7716 7.57099C67.2 8.17205 66.9145 8.94978 66.915 9.90419C66.915 10.8409 67.2005 11.6108 67.7716 12.214C68.3426 12.8171 69.0904 13.1171 70.015 13.114Z" fill="#0D111F"/>
<path d="M77.5945 15.9064L82.104 9.80604L77.8511 3.97656H81.8182L84.2017 7.48455L86.5577 3.97656H90.3223L86.1504 9.75765L90.5579 15.9072H86.6135L84.0228 12.0823L81.3834 15.9072L77.5945 15.9064Z" fill="#0D111F"/>
<path d="M35.2884 0H27.7436L19.1286 8.8535C17.1547 10.8831 17.1564 13.8345 19.1286 15.8601L21.9331 18.7343H29.4786L23.6778 12.7846C23.5586 12.6678 23.4918 12.5105 23.4918 12.3467C23.4918 12.1828 23.5586 12.0256 23.6778 11.9088L35.2884 0Z" fill="#1772F8"/>
<path d="M13.3553 0H5.80975L11.6106 5.94969C11.7298 6.06649 11.7965 6.22377 11.7965 6.38761C11.7965 6.55144 11.7298 6.70872 11.6106 6.82552L0 18.7343H7.54555L16.1663 9.89248C18.1433 7.86293 18.1425 4.9076 16.1663 2.88039L13.3553 0Z" fill="#1772F8"/>
</svg>

<svg width="91" height="19" fill="none" xmlns="http://www.w3.org/2000/svg"><path d="M37.35 15.906V3.976h3.355V9.46l4.51-5.483h3.87l-4.87 5.68 5.123 6.25H45.24l-4.533-5.804v5.803H37.35zM56.294 16.154c-1.091 0-2.06-.223-2.908-.668a4.972 4.972 0 0 1-1.984-1.852c-.478-.79-.717-1.704-.717-2.741V3.977h3.381v6.841c0 .742.197 1.319.59 1.73.393.412.939.617 1.639.617.701 0 1.247-.202 1.638-.605.39-.403.588-.984.59-1.742V3.978h3.357v6.916c0 1.054-.235 1.977-.704 2.767a4.819 4.819 0 0 1-1.972 1.839c-.847.436-1.817.654-2.91.655zM69.271 16.154c-1.11 0-2.1-.276-2.971-.829a5.897 5.897 0 0 1-2.062-2.221c-.505-.932-.757-1.982-.757-3.15 0-1.17.252-2.224.757-3.163A5.892 5.892 0 0 1 66.3 4.556a5.447 5.447 0 0 1 2.971-.827 5.283 5.283 0 0 1 2.1.395c.596.25 1.129.621 1.563 1.087V0h3.331v15.906h-3.331v-1.21c-.44.454-.971.816-1.562 1.063a5.309 5.309 0 0 1-2.101.395zm.744-3.04c.921 0 1.664-.3 2.229-.902.564-.6.846-1.379.844-2.334 0-.937-.281-1.706-.844-2.309-.563-.602-1.306-.902-2.229-.9-.924 0-1.672.3-2.243.902-.572.601-.858 1.379-.857 2.333 0 .937.285 1.707.857 2.31.57.603 1.318.903 2.243.9zM77.594 15.906l4.51-6.1-4.253-5.83h3.967l2.384 3.509 2.356-3.508h3.764l-4.172 5.78 4.408 6.15h-3.945l-2.59-3.825-2.64 3.825h-3.788z" fill="#0D111F"/><path d="M35.288 0h-7.544l-8.615 8.854c-1.974 2.03-1.973 4.98 0 7.006l2.804 2.874h7.546l-5.801-5.95a.613.613 0 0 1-.186-.437c0-.164.067-.321.186-.438L35.288 0zM13.355 0H5.81l5.8 5.95c.12.116.187.274.187.438a.613.613 0 0 1-.186.438L0 18.734h7.546l8.62-8.842c1.977-2.03 1.976-4.984 0-7.012L13.356 0z" fill="#1772F8"/></svg>
